Papirus/22x22/mimetypes/application-x-ms-dos-executable.svg

<?xml version="1.0" encoding="UTF-8" standalone="no"?>
<svg xmlns="http://www.w3.org/2000/svg" height="22" width="22" version="1">
 <g transform="translate(-1,-1)">
  <rect transform="matrix(0,-1,-1,0,0,0)" rx="1" ry="1" height="20" width="20" y="-22" x="-22" fill="#5d5d5d"/>
  <path opacity=".1" fill="#fff" d="m3 2c-0.554 0-1 0.446-1 1v0.5c0-0.554 0.446-1 1-1h18c0.554 0 1 0.446 1 1v-0.5c0-0.554-0.446-1-1-1h-18z"/>
  <g opacity=".2" transform="matrix(.5 0 0 .5 0 .5)">
   <g>
    <path opacity="1" d="m9 8h12c0.554 0 1 0.446 1 1v12c0 0.554-0.446 1-1 1h-12c-0.554 0-1-0.446-1-1v-12c0-0.554 0.446-1 1-1z"/>
    <path opacity="1" d="m27 8h12c0.554 0 1 0.446 1 1v12c0 0.554-0.446 1-1 1h-12c-0.554 0-1-0.446-1-1v-12c0-0.554 0.446-1 1-1z"/>
   </g>
   <g transform="translate(0,18)">
    <path opacity="1" d="m9 8h12c0.554 0 1 0.446 1 1v12c0 0.554-0.446 1-1 1h-12c-0.554 0-1-0.446-1-1v-12c0-0.554 0.446-1 1-1z"/>
    <path opacity="1" d="m27 8h12c0.554 0 1 0.446 1 1v12c0 0.554-0.446 1-1 1h-12c-0.554 0-1-0.446-1-1v-12c0-0.554 0.446-1 1-1z"/>
   </g>
  </g>
  <g fill="#48aeff" transform="scale(.5)">
   <g>
    <path d="m9 8h12c0.554 0 1 0.446 1 1v12c0 0.554-0.446 1-1 1h-12c-0.554 0-1-0.446-1-1v-12c0-0.554 0.446-1 1-1z"/>
    <path d="m27 8h12c0.554 0 1 0.446 1 1v12c0 0.554-0.446 1-1 1h-12c-0.554 0-1-0.446-1-1v-12c0-0.554 0.446-1 1-1z"/>
   </g>
   <g transform="translate(0,18)">
    <path d="m9 8h12c0.554 0 1 0.446 1 1v12c0 0.554-0.446 1-1 1h-12c-0.554 0-1-0.446-1-1v-12c0-0.554 0.446-1 1-1z"/>
    <path d="m27 8h12c0.554 0 1 0.446 1 1v12c0 0.554-0.446 1-1 1h-12c-0.554 0-1-0.446-1-1v-12c0-0.554 0.446-1 1-1z"/>
   </g>
  </g>
 </g>
</svg>

<svg xmlns="http://www.w3.org/2000/svg" width="22" height="22" version="1">
 <g transform="translate(-1,-1)">
  <g style="opacity:0.2" transform="translate(0,0.5)">
   <rect width="20" height="20" x="-22" y="-22" rx="1" ry="1" transform="matrix(0,-1,-1,0,0,0)"/>
   <path style="opacity:0.1" d="M 3,2 C 2.446,2 2,2.446 2,3 v 0.5 c 0,-0.554 0.446,-1 1,-1 h 18 c 0.554,0 1,0.446 1,1 V 3 C 22,2.446 21.554,2 21,2 Z"/>
   <g style="opacity:0.2" transform="matrix(0.5,0,0,0.5,0,0.5)">
    <g>
     <path d="m 9,8 h 12 c 0.554,0 1,0.446 1,1 v 12 c 0,0.554 -0.446,1 -1,1 H 9 C 8.446,22 8,21.554 8,21 V 9 C 8,8.446 8.446,8 9,8 Z"/>
     <path d="m 27,8 h 12 c 0.554,0 1,0.446 1,1 v 12 c 0,0.554 -0.446,1 -1,1 H 27 c -0.554,0 -1,-0.446 -1,-1 V 9 c 0,-0.554 0.446,-1 1,-1 z"/>
    </g>
    <g transform="translate(0,18)">
     <path d="m 9,8 h 12 c 0.554,0 1,0.446 1,1 v 12 c 0,0.554 -0.446,1 -1,1 H 9 C 8.446,22 8,21.554 8,21 V 9 C 8,8.446 8.446,8 9,8 Z"/>
     <path d="m 27,8 h 12 c 0.554,0 1,0.446 1,1 v 12 c 0,0.554 -0.446,1 -1,1 H 27 c -0.554,0 -1,-0.446 -1,-1 V 9 c 0,-0.554 0.446,-1 1,-1 z"/>
    </g>
   </g>
   <g transform="scale(0.5)">
    <g>
     <path d="m 9,8 h 12 c 0.554,0 1,0.446 1,1 v 12 c 0,0.554 -0.446,1 -1,1 H 9 C 8.446,22 8,21.554 8,21 V 9 C 8,8.446 8.446,8 9,8 Z"/>
     <path d="m 27,8 h 12 c 0.554,0 1,0.446 1,1 v 12 c 0,0.554 -0.446,1 -1,1 H 27 c -0.554,0 -1,-0.446 -1,-1 V 9 c 0,-0.554 0.446,-1 1,-1 z"/>
    </g>
    <g transform="translate(0,18)">
     <path d="m 9,8 h 12 c 0.554,0 1,0.446 1,1 v 12 c 0,0.554 -0.446,1 -1,1 H 9 C 8.446,22 8,21.554 8,21 V 9 C 8,8.446 8.446,8 9,8 Z"/>
     <path d="m 27,8 h 12 c 0.554,0 1,0.446 1,1 v 12 c 0,0.554 -0.446,1 -1,1 H 27 c -0.554,0 -1,-0.446 -1,-1 V 9 c 0,-0.554 0.446,-1 1,-1 z"/>
    </g>
   </g>
  </g>
  <g>
   <rect style="fill:#5d5d5d" width="20" height="20" x="-22" y="-22" rx="1" ry="1" transform="matrix(0,-1,-1,0,0,0)"/>
   <path style="opacity:0.1;fill:#ffffff" d="M 3,2 C 2.446,2 2,2.446 2,3 v 0.5 c 0,-0.554 0.446,-1 1,-1 h 18 c 0.554,0 1,0.446 1,1 V 3 C 22,2.446 21.554,2 21,2 Z"/>
   <g style="opacity:0.2" transform="matrix(0.5,0,0,0.5,0,0.5)">
    <g>
     <path d="m 9,8 h 12 c 0.554,0 1,0.446 1,1 v 12 c 0,0.554 -0.446,1 -1,1 H 9 C 8.446,22 8,21.554 8,21 V 9 C 8,8.446 8.446,8 9,8 Z"/>
     <path d="m 27,8 h 12 c 0.554,0 1,0.446 1,1 v 12 c 0,0.554 -0.446,1 -1,1 H 27 c -0.554,0 -1,-0.446 -1,-1 V 9 c 0,-0.554 0.446,-1 1,-1 z"/>
    </g>
    <g transform="translate(0,18)">
     <path d="m 9,8 h 12 c 0.554,0 1,0.446 1,1 v 12 c 0,0.554 -0.446,1 -1,1 H 9 C 8.446,22 8,21.554 8,21 V 9 C 8,8.446 8.446,8 9,8 Z"/>
     <path d="m 27,8 h 12 c 0.554,0 1,0.446 1,1 v 12 c 0,0.554 -0.446,1 -1,1 H 27 c -0.554,0 -1,-0.446 -1,-1 V 9 c 0,-0.554 0.446,-1 1,-1 z"/>
    </g>
   </g>
   <g style="fill:#48aeff" transform="scale(0.5)">
    <g>
     <path d="m 9,8 h 12 c 0.554,0 1,0.446 1,1 v 12 c 0,0.554 -0.446,1 -1,1 H 9 C 8.446,22 8,21.554 8,21 V 9 C 8,8.446 8.446,8 9,8 Z"/>
     <path d="m 27,8 h 12 c 0.554,0 1,0.446 1,1 v 12 c 0,0.554 -0.446,1 -1,1 H 27 c -0.554,0 -1,-0.446 -1,-1 V 9 c 0,-0.554 0.446,-1 1,-1 z"/>
    </g>
    <g transform="translate(0,18)">
     <path d="m 9,8 h 12 c 0.554,0 1,0.446 1,1 v 12 c 0,0.554 -0.446,1 -1,1 H 9 C 8.446,22 8,21.554 8,21 V 9 C 8,8.446 8.446,8 9,8 Z"/>
     <path d="m 27,8 h 12 c 0.554,0 1,0.446 1,1 v 12 c 0,0.554 -0.446,1 -1,1 H 27 c -0.554,0 -1,-0.446 -1,-1 V 9 c 0,-0.554 0.446,-1 1,-1 z"/>
    </g>
   </g>
  </g>
 </g>
</svg>
